src/images/deploy-heroku.svg

<svg xmlns="http://www.w3.org/2000/svg" width="114" height="114" fill="none" viewBox="0 0 114 114"><rect width="114" height="114" fill="#F7A501" rx="10"/><path fill="#fff" fill-rule="evenodd" stroke="#fff" stroke-linecap="round" stroke-linejoin="round" stroke-width="2.17" d="M36.9786 88.1958L77.1524 88.4735C77.8465 88.4781 78.5346 88.346 79.1776 88.0845C79.8205 87.8231 80.4056 87.4374 80.8994 86.9497C81.3932 86.462 81.786 85.8818 82.0555 85.2421C82.3249 84.6025 82.4656 83.916 82.4696 83.222L82.7574 31.717C82.7621 31.024 82.6295 30.3369 82.3674 29.6953C82.1052 29.0538 81.7187 28.4705 81.23 27.979C80.7414 27.4876 80.1603 27.0977 79.5203 26.8318C78.8802 26.566 78.1939 26.4295 77.5008 26.4302H37.0644C36.3654 26.4282 35.6729 26.5646 35.0269 26.8314C34.3808 27.0983 33.794 27.4904 33.3002 27.9852C32.8064 28.4799 32.4154 29.0675 32.1497 29.7141C31.884 30.3606 31.749 31.0534 31.7523 31.7524L31.6816 82.8938C31.687 84.2975 32.2466 85.6422 33.2387 86.6352C34.2307 87.6282 35.5749 88.1891 36.9786 88.1958Z" clip-rule="evenodd"/><path fill="#F7A501" fill-rule="evenodd" stroke="#F7A501" stroke-linecap="round" stroke-linejoin="round" stroke-width="2.17" d="M43.7046 58.0451L43.7551 34.772L50.8244 34.8023L50.6477 49.4458C50.6477 49.4458 60.0902 44.5276 67.816 49.2742C70.0782 50.6628 70.0883 54.9094 70.0883 54.9094L69.9923 79.7227H63.6401L63.4179 54.9801C63.4179 54.9801 62.2262 51.8544 55.0205 53.7834C50.067 55.1013 43.7046 58.0451 43.7046 58.0451Z" clip-rule="evenodd"/><path fill="#F7A501" fill-rule="evenodd" stroke="#F7A501" stroke-linecap="round" stroke-linejoin="round" stroke-width="2.17" d="M60.3528 43.3106L64.9276 35.2314L72.5473 35.1355L67.6039 43.3106H60.3528Z" clip-rule="evenodd"/><path fill="#F7A501" fill-rule="evenodd" stroke="#F7A501" stroke-linecap="round" stroke-linejoin="round" stroke-width="2.17" d="M43.9722 65.7861L44.0681 80.0712L51.1374 73.2139L43.9722 65.7861Z" clip-rule="evenodd"/></svg>

<svg fill="none" viewBox="0 0 114 114"><rect width="114" height="114" fill="#F7A501" rx="10"/><path fill="#fff" fill-rule="evenodd" stroke="#fff" stroke-linecap="round" stroke-linejoin="round" stroke-width="2.17" d="M36.979 88.196l40.173.278a5.282 5.282 0 005.318-5.252l.287-51.505a5.252 5.252 0 00-5.256-5.287H37.064a5.298 5.298 0 00-5.312 5.322l-.07 51.142a5.322 5.322 0 005.297 5.302z" clip-rule="evenodd"/><path fill="#F7A501" fill-rule="evenodd" stroke="#F7A501" stroke-linecap="round" stroke-linejoin="round" stroke-width="2.17" d="M43.705 58.045l.05-23.273 7.07.03-.177 14.644s9.442-4.918 17.168-.172c2.262 1.389 2.272 5.635 2.272 5.635l-.096 24.814H63.64l-.222-24.743s-1.192-3.126-8.398-1.197c-4.953 1.318-11.315 4.262-11.315 4.262z" clip-rule="evenodd"/><path fill="#F7A501" fill-rule="evenodd" stroke="#F7A501" stroke-linecap="round" stroke-linejoin="round" stroke-width="2.17" d="M60.353 43.31l4.575-8.079 7.62-.096-4.944 8.176h-7.251zm-16.38 22.476l.095 14.285 7.07-6.857-7.166-7.428z" clip-rule="evenodd"/></svg>
